public/svg/userpage_light.svg

<svg role="img" xmlns="http://www.w3.org/2000/svg" width="30px" height="30px" viewBox="0 0 24 24" aria-labelledby="peopleIconTitle" stroke="rgba(16, 185, 129)" stroke-width="1" stroke-linecap="square" stroke-linejoin="miter" fill="none" color="rgba(16, 185, 129)"> <title id="peopleIconTitle">People</title> <path d="M1 18C1 15.75 4 15.75 5.5 14.25 6.25 13.5 4 13.5 4 9.75 4 7.25025 4.99975 6 7 6 9.00025 6 10 7.25025 10 9.75 10 13.5 7.75 13.5 8.5 14.25 10 15.75 13 15.75 13 18M12.7918114 15.7266684C13.2840551 15.548266 13.6874862 15.3832994 14.0021045 15.2317685 14.552776 14.9665463 15.0840574 14.6659426 15.5 14.25 16.25 13.5 14 13.5 14 9.75 14 7.25025 14.99975 6 17 6 19.00025 6 20 7.25025 20 9.75 20 13.5 17.75 13.5 18.5 14.25 20 15.75 23 15.75 23 18"/> <path stroke-linecap="round" d="M12,16 C12.3662741,15.8763472 12.6302112,15.7852366 12.7918114,15.7266684"/> </svg>

<svg xmlns="http://www.w3.org/2000/svg" width="30" height="30" viewBox="0 0 24 24" aria-labelledby="peopleIconTitle" stroke="rgba(16, 185, 129)" stroke-linecap="square" fill="none" color="rgba(16, 185, 129)"><path d="M1 18c0-2.25 3-2.25 4.5-3.75.75-.75-1.5-.75-1.5-4.5C4 7.25 5 6 7 6s3 1.25 3 3.75c0 3.75-2.25 3.75-1.5 4.5C10 15.75 13 15.75 13 18m-.208-2.273c.492-.179.895-.344 1.21-.495.55-.265 1.082-.566 1.498-.982.75-.75-1.5-.75-1.5-4.5C14 7.25 15 6 17 6s3 1.25 3 3.75c0 3.75-2.25 3.75-1.5 4.5C20 15.75 23 15.75 23 18"/><path stroke-linecap="round" d="M12 16c.366-.124.63-.215.792-.273"/></svg>
